X: 557
T: Absent Fiddler, The
R: reel
M: 4/4
K: Dmajor
|:B|Adfd a2fd|Affe fedc|Beed efga|bgaf gfed|
Adfd a2fd|Affe fedc|Beed efge|afge d2z:|
|:a|b2bg dgbg|a2af dfaf|g2ge cdec|dcde fdfa|
b2bg dgbg|afef d2df|ggge cdeg|fgec d2z:|

